file/hm.svg

<svg clip-rule="evenodd" fill-rule="evenodd" stroke-linejoin="round" stroke-miterlimit="1.41421" viewBox="0 0 560 400" xmlns="http://www.w3.org/2000/svg"><g fill="#cc071e" fill-rule="nonzero" transform="matrix(.427813 0 0 .427813 -1748.18 -143.104)"><path d="m498.02 14.181c25.74-12.642 38.496-10.983 38.783 1.831.344 16.646-2.117 38.782-3.891 54.799-9.553 87.055-25.512 158.191-26.713 247.574 42.043-108.843 77.279-184.492 122.697-277.662 14.416-29.688 23.625-24.139 35.465-29.402 46.105-20.535 47.822-7.951 41.814 17.161-22.365 93.01-79.625 385.858-88.375 430.951-2.518 13.047-16.703 7.516-20.365 2.414-16.416-22.709-34.949-23.064-32.891-38.165 10.297-75.181 47.363-263.808 57.031-308.254-49.252 100.972-100.332 227.199-126.588 298.77-5.549 15.198-15.674 14.083-21.965 2.963-8.867-15.621-26.084-23.596-28.945-42.055-8.98-58.688 10.297-170.552 12.984-241.322-26.826 77.308-71.844 227.399-91.579 295.211-8.122 28.058-35.236 23.481-28.029-3.866 29.973-113.803 94.555-315.078 122.469-387.438 6.581-17.047 23.797-16.475 38.098-23.51zm-163.482-13.958c-8.694-2.116-33.92 11.498-49.422 14.186-4.919.858-9.61 6.063-11.269 9.782-24.826 57.03-47.077 111.394-66.354 160.919-24.654 4.21-53.483 9.753-85.745 17 23.109-59.278 46.448-117.744 69.214-173.973 11.211-27.686-18.304-30.317-29.745-2.288-14.873 36.438-42.73 104.708-73.562 184.281-22.652 5.554-46.676 11.903-71.788 19.157-18.248 5.268-18.991 10.13-11.097 21.073 4.347 6.093 13.328 5.479 17.446 9.821 10.64 11.252 17.104 24.711 36.151 26.748-16.989 45.446-33.978 92.312-49.365 137.438-9.667 28.326 17.847 34.12 28.43 4.146 17.046-48.318 35.007-97.22 53.483-145.978 15.387-3.576 52.625-11.596 87.003-19.055-27.285 74.785-45.247 131.581-52.053 159.227-1.258 5.319.858 8.271 2.002 10.439 9.209 13.402 17.961 13.951 29.802 30.522 3.204 4.519 13.958 6.956 17.618-4.17 25.283-76.37 51.31-148.026 75.563-212.264 10.067-2.202 28.2-6.578 39.297-23.138 19.734-29.391 25.397-23.43 30.146-32.365 5.949-11.217 2.001-21.748-19.048-19.146 0 0-7.951.566-22.652 2.242 23.338-60.09 43.759-111.057 58.46-149.896 5.036-13.153 5.665-22.763-2.515-24.708z" transform="translate(4386.47 568.248)"/><path d="m4686.57 958.208c5.44 13.734 22.42 9.575 15.96-7.001-6.58-16.887-22.94-67.722-27.23-84.099-5.83-22.068 19.45-16.033 6.64-1.606-10.98 12.406-18.31 17.377-38.61 40.967-19.62 22.772-14.3 52.323 6.69 58.85 23.68 7.367 44.56-18.728 57.49-37.873 12.52-18.539.4-29.413-12.24-18.453-8.13 7.047-17.51 17.869-27 23.704-7.73 4.696-13.79-.349-3.49-14.523 11.95-16.411 25.34-30.162 35.29-45.67 20.31-31.604-19.85-49.822-37.12-29.293-9.27 10.943-6.92 21.686-4.41 30.906 4.06 14.769 19.16 61.915 28.03 84.091"/></g></svg>

<?xml version="1.0" encoding="UTF-8" standalone="no"?>
<!DOCTYPE svg PUBLIC "-//W3C//DTD SVG 1.1//EN" "http://www.w3.org/Graphics/SVG/1.1/DTD/svg11.dtd">
<svg width="100%" height="100%" viewBox="0 0 560 400" version="1.1" xmlns="http://www.w3.org/2000/svg" xmlns:xlink="http://www.w3.org/1999/xlink" xml:space="preserve" xmlns:serif="http://www.serif.com/" style="fill-rule:evenodd;clip-rule:evenodd;stroke-linejoin:round;stroke-miterlimit:1.41421;">
    <g transform="matrix(0.427813,0,0,0.427813,-1748.18,-143.104)">
        <g id="path45125" transform="matrix(1,0,0,1,4386.47,568.248)">
            <path d="M498.02,14.181C523.76,1.539 536.516,3.198 536.803,16.012C537.147,32.658 534.686,54.794 532.912,70.811C523.359,157.866 507.4,229.002 506.199,318.385C548.242,209.542 583.478,133.893 628.896,40.723C643.312,11.035 652.521,16.584 664.361,11.321C710.466,-9.214 712.183,3.37 706.175,28.482C683.81,121.492 626.55,414.34 617.8,459.433C615.282,472.48 601.097,466.949 597.435,461.847C581.019,439.138 562.486,438.783 564.544,423.682C574.841,348.501 611.907,159.874 621.575,115.428C572.323,216.4 521.243,342.627 494.987,414.198C489.438,429.396 479.313,428.281 473.022,417.161C464.155,401.54 446.938,393.565 444.077,375.106C435.097,316.418 454.374,204.554 457.061,133.784C430.235,211.092 385.217,361.183 365.482,428.995C357.36,457.053 330.246,452.476 337.453,425.129C367.426,311.326 432.008,110.051 459.922,37.691C466.503,20.644 483.719,21.216 498.02,14.181ZM334.538,0.223C325.844,-1.893 300.618,11.721 285.116,14.409C280.197,15.267 275.506,20.472 273.847,24.191C249.021,81.221 226.77,135.585 207.493,185.11C182.839,189.32 154.01,194.863 121.748,202.11C144.857,142.832 168.196,84.366 190.962,28.137C202.173,0.451 172.658,-2.18 161.217,25.849C146.344,62.287 118.487,130.557 87.655,210.13C65.003,215.684 40.979,222.033 15.867,229.287C-2.381,234.555 -3.124,239.417 4.77,250.36C9.117,256.453 18.098,255.839 22.216,260.181C32.856,271.433 39.32,284.892 58.367,286.929C41.378,332.375 24.389,379.241 9.002,424.367C-0.665,452.693 26.849,458.487 37.432,428.513C54.478,380.195 72.439,331.293 90.915,282.535C106.302,278.959 143.54,270.939 177.918,263.48C150.633,338.265 132.671,395.061 125.865,422.707C124.607,428.026 126.723,430.978 127.867,433.146C137.076,446.548 145.828,447.097 157.669,463.668C160.873,468.187 171.627,470.624 175.287,459.498C200.57,383.128 226.597,311.472 250.85,247.234C260.917,245.032 279.05,240.656 290.147,224.096C309.881,194.705 315.544,200.666 320.293,191.731C326.242,180.514 322.294,169.983 301.245,172.585C301.245,172.585 293.294,173.151 278.593,174.827C301.931,114.737 322.352,63.77 337.053,24.931C342.089,11.778 342.718,2.168 334.538,0.223Z" style="fill:rgb(204,7,30);fill-rule:nonzero;"/>
        </g>
        <path id="path45129" d="M4686.57,958.208C4692.01,971.942 4708.99,967.783 4702.53,951.207C4695.95,934.32 4679.59,883.485 4675.3,867.108C4669.47,845.04 4694.75,851.075 4681.94,865.502C4670.96,877.908 4663.63,882.879 4643.33,906.469C4623.71,929.241 4629.03,958.792 4650.02,965.319C4673.7,972.686 4694.58,946.591 4707.51,927.446C4720.03,908.907 4707.91,898.033 4695.27,908.993C4687.14,916.04 4677.76,926.862 4668.27,932.697C4660.54,937.393 4654.48,932.348 4664.78,918.174C4676.73,901.763 4690.12,888.012 4700.07,872.504C4720.38,840.9 4680.22,822.682 4662.95,843.211C4653.68,854.154 4656.03,864.897 4658.54,874.117C4662.6,888.886 4677.7,936.032 4686.57,958.208" style="fill:rgb(204,7,30);fill-rule:nonzero;"/>
    </g>
</svg>
